public/external-logos/unicredit-logo.svg

<?xml version="1.0" encoding="UTF-8"?>
<svg width="200px" height="39px" viewBox="0 0 200 39" version="1.1" xmlns="http://www.w3.org/2000/svg" xmlns:xlink="http://www.w3.org/1999/xlink">
    <!-- Generator: Sketch 50.2 (55047) - http://www.bohemiancoding.com/sketch -->
    <title>unicredit</title>
    <desc>Created with Sketch.</desc>
    <defs></defs>
    <g id="Page-1" stroke="none" stroke-width="1" fill="none" fill-rule="evenodd">
        <g id="unicredit">
            <g id="UniCredit-(1)">
                <path d="M67.539267,3.14136126 L67.539267,27.6608888 C67.539267,33.0640391 62.80161,37.1727749 56.5445048,37.1727749 C50.2873952,37.1727749 45.5497382,33.0640391 45.5497382,27.6608888 L45.5497382,8.90284753 C45.5497382,5.73172261 48.0986457,3.14136126 51.2704797,3.14136126 L51.6738928,3.14136126 L51.6738928,27.6160968 C51.6738928,30.5184697 54.264535,32.30564 56.7686101,32.30564 C59.1814955,32.30564 61.7736799,30.6528457 61.7736799,27.6160968 L61.7736799,8.59083599 C61.7736799,5.59734661 64.2329313,3.14136126 67.2270085,3.14136126 L67.539267,3.14136126 Z" id="path23713" fill="#A2B0CD" fill-rule="nonzero"></path>
                <path d="M79.2751687,11.5183246 C87.6590937,11.5183246 89.0052356,16.23035 89.0052356,19.05819 L89.0052356,36.6492147 L88.7369401,36.6492147 C85.6429868,36.6492147 82.9972272,34.0464105 82.9972272,30.9484836 L82.9972272,19.1482483 C82.9972272,17.4875148 82.324154,15.5117753 79.0502981,15.5117753 C77.5258098,15.5117753 76.6294135,15.6917159 75.6430681,16.0503213 L75.6430681,36.6492147 L69.6335079,36.6492147 L69.6335079,13.3590427 C72.1893139,12.2369433 76.3161412,11.5183246 79.2751731,11.5183246" id="path23717" fill="#A2B0CD" fill-rule="nonzero"></path>
                <path d="M97.122915,11.762317 L97.122915,31.0499698 C97.122915,34.1147261 94.6949554,36.6492147 91.6630052,36.6492147 L91.4022385,36.6492147 L91.4022385,11.762317 L97.122915,11.762317 Z M94.2633181,3.14136126 C95.9958616,3.14136126 97.382199,4.47393595 97.382199,6.11850199 C97.382199,7.71849784 95.9958616,9.00650235 94.2633181,9.00650235 C92.5292749,9.00650235 91.0994764,7.71849784 91.0994764,6.11850199 C91.0994764,4.47393595 92.5292749,3.14136126 94.2633181,3.14136126 Z" id="path23721" fill="#A2B0CD" fill-rule="nonzero"></path>
                <path d="M114.321275,2.61780105 C117.145686,2.61780105 119.79173,3.24394335 121.989529,4.58440591 L121.989529,10.4858421 C120.644794,8.74182955 118.71532,7.53433513 115.621033,7.53433513 C109.522414,7.53433513 105.754977,13.5254393 105.754977,19.7391359 C105.754977,25.5956942 109.702331,31.9872367 115.621033,31.9872367 C118.222096,31.9872367 120.599812,31.2280824 121.989529,29.3496117 L121.989529,35.161336 C120.239977,36.4584984 117.505525,37.1727749 114.274746,37.1727749 C104.590159,37.1727749 99.4764398,28.3229872 99.4764398,19.7839699 C99.4764398,11.3794546 104.590159,2.61780105 114.321275,2.61780105" id="path23725" fill="#A2B0CD" fill-rule="nonzero"></path>
                <path d="M132.219273,11.5185006 C133.211214,11.5185006 134.474516,11.6086909 135.602094,11.7868717 L135.602094,16.5889114 C133.526255,15.1082506 130.775062,15.6018336 129.558538,16.23035 L129.558538,30.9950746 C129.558538,34.0898778 126.988262,36.6492147 123.876798,36.6492147 L123.560209,36.6492147 L123.560209,13.4475172 C125.905898,12.3253738 128.295253,11.5183246 132.219273,11.5183246" id="path23729" fill="#A2B0CD" fill-rule="nonzero"></path>
                <path d="M150.92723,20.8098662 C150.751157,15.897829 147.721284,15.3683759 146.096248,15.3683759 L145.877556,15.3683759 C142.583531,15.4555626 141.046618,17.8014484 141.046618,22.1809527 L150.92723,20.8098662 Z M156.020942,24.1717588 L141.397429,26.2069823 C141.880359,30.2330119 143.900246,32.3569403 147.589122,32.3569403 C151.672891,32.3569403 153.736818,31.0302279 155.229691,29.968242 L155.229691,34.878761 C153.736818,35.6760204 150.969763,36.6492147 147.018112,36.6492147 C139.860516,36.6492147 135.602094,31.781595 135.602094,23.9942623 C135.602094,16.4288436 139.553745,11.5183246 146.052209,11.5183246 C152.464143,11.5183246 156.020942,15.8106423 156.020942,23.2429386 L156.020942,24.1717588 Z" id="path23733" fill="#A2B0CD" fill-rule="nonzero"></path>
                <path d="M171.745103,16.6291396 C171.131229,16.4500592 170.47486,16.3620514 169.729119,16.3620514 C164.90737,16.3620514 163.899357,21.0948103 163.899357,25.0259106 C163.899357,30.5186448 165.69711,33.2433822 169.33498,33.2433822 C169.947393,33.2433822 171.307051,33.1089624 171.745103,33.0192033 L171.745103,16.6291396 Z M177.486911,3.14136126 L177.486911,36.5024273 C176.083298,36.8159275 171.481369,37.1727749 169.553254,37.1727749 L169.159244,37.1727749 C162.015326,37.0830157 158.115183,32.884871 158.115183,25.3377908 C158.115183,17.7011265 162.191149,12.7876233 168.501414,12.7876233 C169.729205,12.7876233 170.781131,12.9220431 171.701233,13.1462221 L171.701233,8.81348245 C171.701233,5.68714954 174.155311,3.14158018 177.223264,3.14158018 L177.486911,3.14136126 Z" id="path23737" fill="#A2B0CD" fill-rule="nonzero"></path>
                <path d="M186.126729,11.762317 L186.126729,31.0499698 C186.126729,34.1147261 183.700822,36.6492147 180.668088,36.6492147 L180.407297,36.6492147 L180.407297,11.762317 L186.126729,11.762317 Z M183.266312,3.14136126 C184.999934,3.14136126 186.387435,4.47393595 186.387435,6.11850199 C186.387435,7.71849784 184.999934,9.00650235 183.266312,9.00650235 C181.534177,9.00650235 180.104712,7.71849784 180.104712,6.11850199 C180.104712,4.47393595 181.534177,3.14136126 183.266312,3.14136126 Z" id="path23741" fill="#A2B0CD" fill-rule="nonzero"></path>
                <path d="M196.261146,3.1415364 L196.261146,11.8053956 L200,11.8053956 L200,16.5844789 L196.261146,16.5844789 L196.261146,29.8498298 C196.261146,31.4562557 196.782794,31.9474353 198.477074,31.9474353 C198.911575,31.9474353 199.564008,31.8130155 200,31.6352486 L200,36.5920113 C199.738345,36.6817705 198.607901,37.1727749 197.086467,37.1727749 C192.827498,37.1727749 190.479251,35.0303773 190.479251,31.1440691 L190.479251,16.5843038 L187.958115,16.5843038 L187.958115,11.8052204 L190.479251,11.8052204 L190.479251,8.76847152 C190.479251,5.68693061 192.913154,3.14136126 195.913877,3.14136126 L196.261146,3.1415364 Z" id="path23745" fill="#A2B0CD" fill-rule="nonzero"></path>
                <path d="M20.125072,10.0681391 C20.4579029,9.57807 20.333624,9.25331535 20.1342038,9.07853177 L17.0094374,7.13592211 C16.7931452,6.98906357 16.6504723,6.74006163 16.6504723,6.45546294 C16.6504723,6.00699642 16.9158586,5.66830117 17.5202724,5.49969881 C19.4470258,4.96618585 26.2244091,4.68623402 28.5270041,4.68623402 C29.3262374,4.68623402 30.7022719,4.68316534 31.9371728,4.71692088 C28.507049,1.75528831 24.1243001,0 19.3334963,0 C8.65505138,0 0,8.72545755 0,19.4908021 C0,24.2231541 1.67210347,28.5611361 4.45485069,31.9371728 C6.88323345,28.4173024 12.8782598,19.7366915 14.1929288,17.9643939 C15.7070267,15.9214382 19.1586144,11.3761884 19.7430818,10.6060359 L20.125072,10.0681391 Z" id="path23749" fill="#A2B0CD"></path>
                <path d="M7.76233962,34.6953538 C11.0104079,37.2329652 15.0800402,38.7434555 19.4978421,38.7434555 C30.1277492,38.7434555 38.7434555,30.0028038 38.7434555,19.2187129 C38.7434555,15.9545326 37.9554908,12.8793174 36.5597518,10.1759719 L36.5612799,10.1775089 C37.2240242,9.52994261 37.9875577,8.50435852 37.4851568,7.22007289 C37.3294105,6.83757579 36.5811313,5.96982116 36.3887209,5.7591623 L36.4146931,5.83337816 C36.8835033,7.26793992 35.9565747,8.16647876 35.2907743,8.77843022 C34.9258223,9.11437773 30.0391928,13.7885714 24.3081135,18.8731041 C19.2565782,23.3534144 13.6064367,27.9127711 10.333933,30.3992658 C5.72982851,33.8958426 4.83343875,34.4039797 4.83343875,34.4039797 C4.71279811,34.4707301 4.50969591,34.5278192 4.36004872,34.5278192 C4.07907335,34.5278192 3.83474036,34.3991491 3.68050476,34.1962632 L3.67574319,34.1874802 L3.66492147,34.3376685 C4.15816287,35.1478949 4.97667082,36.0882844 5.4531169,36.0882844 C5.60275977,36.0882844 5.80586197,36.0311953 5.92803496,35.9657624 C5.92803496,35.9657624 6.28839853,35.7611199 7.76204094,34.6938607" id="path23753" fill="#A2B0CD"></path>
                <path d="M20.4209121,9.06667109 L17.3148984,7.14178444 C17.0999093,6.99613426 16.958096,6.74918112 16.958096,6.46535893 C16.958096,6.02210414 17.2218834,5.6861957 17.8226557,5.51750236 C19.7393266,4.9883357 26.4743559,4.71225253 28.7630738,4.71225253 C29.8441527,4.71225253 31.9834458,4.703557 33.392355,4.79790353 C34.9720454,4.90224992 36.1720599,5.23050629 36.4693967,6.00040878 C37.0533943,7.50660552 36.0866607,8.43607104 35.3989894,9.06188855 C35.0345798,9.39623179 30.1552127,14.0236901 24.4341765,19.0560994 C19.3886229,23.4918211 13.7468742,28.0073245 10.4792383,30.4690298 C5.88197631,33.9292867 4.9884445,34.4323668 4.9884445,34.4323668 C4.86647037,34.4984529 4.66367001,34.5549738 4.51575801,34.5549738 C4.03849425,34.5549738 3.66492147,34.1884571 3.66492147,33.7083333 C3.66492147,33.5257271 3.71981415,33.3557294 3.81434194,33.2175139 C3.81434194,33.2175139 12.868587,20.0989546 14.5153631,17.8811155 C16.1621435,15.6632328 20.117468,10.4743909 20.117468,10.4743909 C20.117468,10.4743909 20.1631975,10.4148265 20.4468241,9.99739746 C20.742661,9.56379471 20.6191309,9.24001654 20.4209121,9.06667109 Z" id="path23757" fill="#FFFFFF"></path>
            </g>
        </g>
    </g>
</svg>

<svg width="200" height="39" xmlns="http://www.w3.org/2000/svg"><g fill="none" fill-rule="evenodd"><path d="M67.54 3.141v24.52c0 5.403-4.738 9.512-10.995 9.512-6.258 0-10.995-4.109-10.995-9.512V8.903c0-3.171 2.549-5.762 5.72-5.762h.404v24.475c0 2.902 2.59 4.69 5.095 4.69 2.412 0 5.005-1.653 5.005-4.69V8.591c0-2.994 2.459-5.45 5.453-5.45h.312ZM79.275 11.518c8.384 0 9.73 4.712 9.73 7.54V36.65h-.268c-3.094 0-5.74-2.603-5.74-5.7v-11.8c0-1.661-.673-3.637-3.947-3.637-1.524 0-2.42.18-3.407.538v20.6h-6.01V13.358c2.556-1.122 6.683-1.84 9.642-1.84M97.123 11.762V31.05c0 3.065-2.428 5.6-5.46 5.6h-.26V11.761h5.72Zm-2.86-8.62c1.733 0 3.12 1.332 3.12 2.977 0 1.6-1.387 2.888-3.12 2.888-1.734 0-3.164-1.289-3.164-2.888 0-1.645 1.43-2.978 3.164-2.978ZM114.321 2.618c2.825 0 5.47.626 7.669 1.966v5.902c-1.345-1.744-3.275-2.952-6.369-2.952-6.099 0-9.866 5.991-9.866 12.205 0 5.857 3.947 12.248 9.866 12.248 2.601 0 4.979-.759 6.369-2.637v5.811c-1.75 1.297-4.484 2.012-7.715 2.012-9.685 0-14.799-8.85-14.799-17.389 0-8.405 5.114-17.166 14.845-17.166M132.22 11.519c.991 0 2.255.09 3.382.268v4.802c-2.076-1.48-4.827-.987-6.043-.359v14.765c0 3.095-2.57 5.654-5.682 5.654h-.317V13.448c2.346-1.123 4.735-1.93 8.66-1.93M150.927 20.81c-.176-4.912-3.206-5.442-4.83-5.442h-.22c-3.293.088-4.83 2.433-4.83 6.813l9.88-1.371Zm5.094 3.362-14.624 2.035c.483 4.026 2.503 6.15 6.192 6.15 4.084 0 6.148-1.327 7.64-2.389v4.91c-1.492.798-4.26 1.771-8.21 1.771-7.158 0-11.417-4.867-11.417-12.655 0-7.565 3.952-12.476 10.45-12.476 6.412 0 9.969 4.293 9.969 11.725v.929ZM171.745 16.63a7.1 7.1 0 0 0-2.016-.268c-4.822 0-5.83 4.733-5.83 8.664 0 5.493 1.798 8.217 5.436 8.217.612 0 1.972-.134 2.41-.224V16.63Zm5.742-13.489v33.361c-1.404.314-6.006.67-7.934.67h-.394c-7.144-.089-11.044-4.287-11.044-11.834 0-7.637 4.076-12.55 10.386-12.55 1.228 0 2.28.134 3.2.358V8.813c0-3.126 2.454-5.671 5.522-5.671h.264ZM186.127 11.762V31.05c0 3.065-2.426 5.6-5.459 5.6h-.26V11.761h5.719Zm-2.86-8.62c1.733 0 3.12 1.332 3.12 2.977 0 1.6-1.387 2.888-3.12 2.888s-3.162-1.289-3.162-2.888c0-1.645 1.43-2.978 3.161-2.978ZM196.261 3.142v8.663H200v4.78h-3.739V29.85c0 1.606.522 2.097 2.216 2.097.435 0 1.087-.134 1.523-.312v4.957c-.262.09-1.392.58-2.914.58-4.259 0-6.607-2.142-6.607-6.028v-14.56h-2.52v-4.779h2.52V8.768c0-3.081 2.434-5.627 5.435-5.627h.347Z" fill="#A2B0CD" fill-rule="nonzero"/><path d="M20.125 10.068c.333-.49.209-.815.01-.99l-3.126-1.942a.82.82 0 0 1-.359-.68c0-.449.266-.788.87-.956 1.927-.534 8.704-.814 11.007-.814.8 0 2.175-.003 3.41.03C28.507 1.757 24.124 0 19.333 0 8.655 0 0 8.725 0 19.49c0 4.733 1.672 9.071 4.455 12.447 2.428-3.52 8.423-12.2 9.738-13.973 1.514-2.043 4.966-6.588 5.55-7.358l.382-.538ZM7.762 34.695a18.992 18.992 0 0 0 11.736 4.048c10.63 0 19.245-8.74 19.245-19.524 0-3.264-.788-6.34-2.183-9.043l.001.002c.663-.648 1.427-1.674.924-2.958-.156-.382-.904-1.25-1.096-1.46l.026.073c.469 1.435-.458 2.333-1.124 2.945-.365.336-5.252 5.01-10.983 10.095-5.051 4.48-10.702 9.04-13.974 11.526-4.604 3.497-5.5 4.005-5.5 4.005-.121.067-.324.124-.474.124a.845.845 0 0 1-.68-.332l-.004-.009-.011.15c.493.81 1.312 1.751 1.788 1.751.15 0 .353-.057.475-.122 0 0 .36-.205 1.834-1.272" fill="#A2B0CD"/><path d="m20.42 9.067-3.105-1.925a.813.813 0 0 1-.357-.677c0-.443.264-.779.865-.947 1.916-.53 8.651-.806 10.94-.806 1.081 0 3.22-.008 4.63.086 1.579.104 2.78.433 3.076 1.202.584 1.507-.382 2.436-1.07 3.062-.364.334-5.244 4.962-10.965 9.994-5.045 4.436-10.687 8.951-13.955 11.413-4.597 3.46-5.49 3.963-5.49 3.963a1.14 1.14 0 0 1-.473.123.836.836 0 0 1-.851-.847c0-.182.055-.352.15-.49 0 0 9.054-13.119 10.7-15.337 1.647-2.218 5.602-7.407 5.602-7.407s.046-.06.33-.477c.296-.433.172-.757-.026-.93Z" fill="#FFF"/></g></svg>
